X:1
T:Motif 2
L:1/4
M:4/4
V:1
V:2 clef=bass
K:C
[V:1] c A F E | D B2 A | B G E D | ^C _B2 A :|
[V:2] [D,F,C]4 | [G,,F,B,]4 | [C,E,B,]4 | [A,,G,^C]4 :| 